DSView/icons/lissajous.svg

<?xml version="1.0" encoding="UTF-8" standalone="no"?>
<!-- 由 Microsoft Visio, SVG Export 生成 lissajous.svg 页-1 -->

<svg
   xmlns:v="http://schemas.microsoft.com/visio/2003/SVGExtensions/"
   xmlns:dc="http://purl.org/dc/elements/1.1/"
   xmlns:cc="http://creativecommons.org/ns#"
   xmlns:rdf="http://www.w3.org/1999/02/22-rdf-syntax-ns#"
   xmlns:svg="http://www.w3.org/2000/svg"
   xmlns="http://www.w3.org/2000/svg"
   xmlns:sodipodi="http://sodipodi.sourceforge.net/DTD/sodipodi-0.dtd"
   xmlns:inkscape="http://www.inkscape.org/namespaces/inkscape"
   width="256"
   height="256"
   viewBox="0 0 191.99946 191.99965"
   xml:space="preserve"
   class="st2"
   version="1.1"
   id="svg16"
   sodipodi:docname="lissajous.svg"
   style="font-size:12px;overflow:visible;color-interpolation-filters:sRGB;fill:none;fill-rule:evenodd;stroke-linecap:square;stroke-miterlimit:3"
   inkscape:version="0.92.4 (5da689c313, 2019-01-14)"><metadata
   id="metadata22"><rdf:RDF><cc:Work
       rdf:about=""><dc:format>image/svg+xml</dc:format><dc:type
         rdf:resource="http://purl.org/dc/dcmitype/StillImage" /><dc:title></dc:title></cc:Work></rdf:RDF></metadata><defs
   id="defs20" /><sodipodi:namedview
   pagecolor="#ffffff"
   bordercolor="#666666"
   borderopacity="1"
   objecttolerance="10"
   gridtolerance="10"
   guidetolerance="10"
   inkscape:pageopacity="0"
   inkscape:pageshadow="2"
   inkscape:window-width="3840"
   inkscape:window-height="2081"
   id="namedview18"
   showgrid="false"
   units="px"
   inkscape:zoom="0.9077605"
   inkscape:cx="-89.850983"
   inkscape:cy="129.99023"
   inkscape:window-x="-9"
   inkscape:window-y="-9"
   inkscape:window-maximized="1"
   inkscape:current-layer="svg16" />
	<v:documentProperties
   v:langID="2052"
   v:viewMarkup="false" />

	<style
   type="text/css"
   id="style2">
	<![CDATA[
		.st1 {fill:none;stroke:#1185d1;stroke-linecap:round;stroke-linejoin:round;stroke-width:4}
		.st2 {fill:none;fill-rule:evenodd;font-size:12px;overflow:visible;stroke-linecap:square;stroke-miterlimit:3}
	]]>
	</style>

	<g
   v:mID="0"
   v:index="1"
   v:groupContext="foregroundPage"
   id="g14"
   transform="matrix(0.99623679,0,0,0.99623679,-0.24765502,-1.1257989)">
		<title
   id="title4">页-1</title>
		<v:pageProperties
   v:drawingScale="0.0393701"
   v:pageScale="0.0393701"
   v:drawingUnits="24"
   v:shadowOffsetX="9"
   v:shadowOffsetY="-9" />
		<g
   id="group18-1"
   v:mID="18"
   v:groupContext="group">
			<title
   id="title6">工作表.18</title>
			<g
   id="shape19-2"
   v:mID="19"
   v:groupContext="shape"
   transform="matrix(0,-1,-1,0,231.116,158.526)">
				<title
   id="title8">curve</title>
				<path
   d="m 61.03,134.5 c 13.78,10.33 27.63,20.72 38.67,30.06 7.17,6.07 13.59,12.07 17.59,17.17 2.25,2.88 4.23,6.09 4.23,8.65 0,3.23 -3.15,4.61 -8.11,4.61 -7.38,0 -19.13,-3.04 -32.31,-8.36 C 70.5,182.36 58.97,176.61 48,169.77 39.84,164.68 32.09,159.04 25.29,153.03 19.97,148.31 13.61,141.93 8.65,134.5 2.67,125.53 0,116.92 0.64,109.04 1.21,102.11 4.33,96.01 9.45,90.92 c 4.25,-4.24 9.23,-7.14 13.17,-9.03 10.89,-5.21 24.6,-7.87 38.41,-7.87 13.81,0 27.52,2.66 38.41,7.87 3.95,1.89 8.93,4.79 13.18,9.03 5.11,5.09 8.24,11.19 8.8,18.12 0.65,7.88 -2.03,16.49 -8.01,25.46 -4.95,7.43 -11.31,13.81 -16.64,18.53 -6.79,6.01 -14.54,11.65 -22.71,16.74 -10.97,6.84 -22.49,12.59 -33.09,16.86 -13.18,5.32 -24.94,8.36 -32.32,8.36 -4.96,0 -8.1,-1.38 -8.1,-4.61 0,-2.56 1.97,-5.77 4.22,-8.65 4,-5.1 10.43,-11.1 17.6,-17.17 11.04,-9.34 24.89,-19.73 38.66,-30.06 13.78,-10.33 27.63,-20.72 38.67,-30.06 7.17,-6.07 13.59,-12.07 17.59,-17.17 2.25,-2.87 4.23,-6.09 4.23,-8.65 0,-3.23 -3.15,-4.6 -8.11,-4.6 -7.38,0 -19.13,3.04 -32.31,8.35 -10.6,4.27 -22.13,10.02 -33.1,16.86 -8.16,5.1 -15.91,10.74 -22.71,16.75 -5.32,4.71 -11.68,11.09 -16.64,18.52 -5.98,8.97 -8.65,17.59 -8.01,25.46 0.57,6.93 3.69,13.03 8.81,18.13 4.25,4.23 9.23,7.13 13.17,9.02 10.89,5.22 24.6,7.88 38.41,7.88 13.81,0 27.52,-2.66 38.41,-7.88 3.95,-1.89 8.93,-4.79 13.18,-9.02 5.11,-5.1 8.24,-11.2 8.8,-18.13 0.65,-7.87 -2.03,-16.49 -8.01,-25.46 C 108.46,127.07 102.1,120.69 96.77,115.98 89.98,109.97 82.23,104.33 74.06,99.23 63.09,92.39 51.57,86.64 40.97,82.37 27.79,77.06 16.03,74.02 8.65,74.02 c -4.96,0 -8.1,1.37 -8.1,4.6 0,2.56 1.97,5.78 4.22,8.65 4,5.1 10.43,11.1 17.6,17.17 11.04,9.34 24.89,19.73 38.66,30.06 z"
   class="st1"
   id="path10"
   inkscape:connector-curvature="0"
   style="fill:none;stroke:#1185d1;stroke-width:4;stroke-linecap:round;stroke-linejoin:round" />
			</g>
		</g>
	</g>
</svg>

<?xml version="1.0" encoding="UTF-8" standalone="no"?>
<!DOCTYPE svg PUBLIC "-//W3C//DTD SVG 1.1//EN" "http://www.w3.org/Graphics/SVG/1.1/DTD/svg11.dtd">
<!-- 由 Microsoft Visio, SVG Export 生成 lissajous.svg 页-1 -->
<svg xmlns="http://www.w3.org/2000/svg" xmlns:xlink="http://www.w3.org/1999/xlink" xmlns:ev="http://www.w3.org/2001/xml-events"
		xmlns:v="http://schemas.microsoft.com/visio/2003/SVGExtensions/" width="2.68373in" height="2.70813in"
		viewBox="0 0 193.228 194.985" xml:space="preserve" color-interpolation-filters="sRGB" class="st2">
	<v:documentProperties v:langID="2052" v:viewMarkup="false"/>

	<style type="text/css">
	<![CDATA[
		.st1 {fill:none;stroke:#1185d1;stroke-linecap:round;stroke-linejoin:round;stroke-width:4}
		.st2 {fill:none;fill-rule:evenodd;font-size:12px;overflow:visible;stroke-linecap:square;stroke-miterlimit:3}
	]]>
	</style>

	<g v:mID="0" v:index="1" v:groupContext="foregroundPage">
		<title>页-1</title>
		<v:pageProperties v:drawingScale="0.0393701" v:pageScale="0.0393701" v:drawingUnits="24" v:shadowOffsetX="9"
				v:shadowOffsetY="-9"/>
		<g id="group18-1" v:mID="18" v:groupContext="group">
			<title>工作表.18</title>
			<g id="shape19-2" v:mID="19" v:groupContext="shape" transform="translate(231.116,158.526) rotate(90) scale(-1,1)">
				<title>curve</title>
				<path d="M61.03 134.5 C74.81 144.83 88.66 155.22 99.7 164.56 C106.87 170.63 113.29 176.63 117.29 181.73 C119.54 184.61
							 121.52 187.82 121.52 190.38 C121.52 193.61 118.37 194.99 113.41 194.99 C106.03 194.99 94.28 191.95 81.1
							 186.63 C70.5 182.36 58.97 176.61 48 169.77 C39.84 164.68 32.09 159.04 25.29 153.03 C19.97 148.31 13.61
							 141.93 8.65 134.5 C2.67 125.53 0 116.92 0.64 109.04 C1.21 102.11 4.33 96.01 9.45 90.92 C13.7 86.68 18.68
							 83.78 22.62 81.89 C33.51 76.68 47.22 74.02 61.03 74.02 C74.84 74.02 88.55 76.68 99.44 81.89 C103.39
							 83.78 108.37 86.68 112.62 90.92 C117.73 96.01 120.86 102.11 121.42 109.04 C122.07 116.92 119.39 125.53
							 113.41 134.5 C108.46 141.93 102.1 148.31 96.77 153.03 C89.98 159.04 82.23 164.68 74.06 169.77 C63.09
							 176.61 51.57 182.36 40.97 186.63 C27.79 191.95 16.03 194.99 8.65 194.99 C3.69 194.99 0.55 193.61 0.55
							 190.38 C0.55 187.82 2.52 184.61 4.77 181.73 C8.77 176.63 15.2 170.63 22.37 164.56 C33.41 155.22 47.26
							 144.83 61.03 134.5 C74.81 124.17 88.66 113.78 99.7 104.44 C106.87 98.37 113.29 92.37 117.29 87.27 C119.54
							 84.4 121.52 81.18 121.52 78.62 C121.52 75.39 118.37 74.02 113.41 74.02 C106.03 74.02 94.28 77.06 81.1
							 82.37 C70.5 86.64 58.97 92.39 48 99.23 C39.84 104.33 32.09 109.97 25.29 115.98 C19.97 120.69 13.61 127.07
							 8.65 134.5 C2.67 143.47 0 152.09 0.64 159.96 C1.21 166.89 4.33 172.99 9.45 178.09 C13.7 182.32 18.68
							 185.22 22.62 187.11 C33.51 192.33 47.22 194.99 61.03 194.99 C74.84 194.99 88.55 192.33 99.44 187.11
							 C103.39 185.22 108.37 182.32 112.62 178.09 C117.73 172.99 120.86 166.89 121.42 159.96 C122.07 152.09
							 119.39 143.47 113.41 134.5 C108.46 127.07 102.1 120.69 96.77 115.98 C89.98 109.97 82.23 104.33 74.06
							 99.23 C63.09 92.39 51.57 86.64 40.97 82.37 C27.79 77.06 16.03 74.02 8.65 74.02 C3.69 74.02 0.55 75.39
							 0.55 78.62 C0.55 81.18 2.52 84.4 4.77 87.27 C8.77 92.37 15.2 98.37 22.37 104.44 C33.41 113.78 47.26
							 124.17 61.03 134.5 Z" class="st1"/>
			</g>
		</g>
	</g>
</svg>
